X:0218
T:Killycrankie.
M:C
L:1/8
Q:1/4=76
I: || ::
Z:Jack Campin * www.campin.me.uk * 2009
K:D
(F/G/)|A>BAF  A>BAF       |ED (D/E/)(F/G/)    A2 A>
 d    |B>cBA  B/A/B/d/  BA|d>efd              B2 B
 a    |bfae   fdef        |A>BAF              A2 A
 d    |BBdd   eef>e       |d<(BA>)F           E2 D||
 f/g/ |a>baf  a>baf       |a/g/f/e/ d/e/f/g/ (a2 a)
 f/a/ |b>c'ba b/a/b/c'/ ba|fefa              (b2 b)
 f/a/ |bfae   fdef        |A>BAF              A2 A
 d    |BBdd   eef>e       |d>BAF             TE2 D:|

